X:1
T:Title
%%score { 1 | 2 }
L:1/8
M:6/8
K:C
V:1 treble nm="Grand Piano"
V:2 bass 
V:1
 z3 z2[Q:1/4=100] [EG] | [Ec][Ec][Ec] [Ec]2 [Ec] | [GB]2 A A2 A | GGG A2 G |[M:5/8] E-E- E3 | %5
[M:1/8] [EG] |[M:3/4] [Ec][Ec] [Ec][Ec] [Ec][Ec] | [GB]2 A A2 A | GG GG AB | %9
[M:5/8] [Ec]-[Ec]- [Ec]3 |[M:1/8] [EG] |[M:3/4] GF F F2 A | [FA]2 [EG] [EG]2 [EG] | GD D G2 F | %14
[M:5/8] E-E- E3 |[M:1/8] [EG] |[M:3/4] [Ec][Ec] [Ec][Ec] [Ec][Ec] | [Ge]2 [Gc] A2 A | GG GG AB | %19
[M:5/8] [Ec]-[Ec]- [Ec]3 |] %20
V:2
 z3 z2 [C,C] | [C,G,][C,G,][C,G,] [C,G,]2 [C,G,] | [E,C]2[K:treble] [F,CF] [F,CF]2 [F,CF] | %3
 [G,CE][G,CE][G,CE] [G,B,F]2[K:bass] [G,B,] |[M:5/8] [C,G,C]-[C,G,C]- [C,G,C]3 |[M:1/8] [C,C] | %6
[M:3/4] [C,G,][C,G,] [C,G,][C,G,] [C,G,][C,G,] | [F,C]2[K:treble] [F,CF] [F,CF]2 [F,CF] | %8
 [G,CE][G,CE] [G,CE] [G,B,F]2 [G,F] |[M:5/8][K:bass] [C,G,]-[C,G,]- [C,G,]3 |[M:1/8] [C,C] | %11
[M:3/4] [G,E][K:treble][G,B,D] [G,B,D] [G,B,D]2 [G,B,F] | [C,C]2 [C,C] [C,C]2 [C,C] | %13
 [G,CE][G,B,] [G,B,] [G,CE]2 [G,D] |[M:5/8] [C,G,C]-[C,G,C]- [C,G,C]3 |[M:1/8] [C,C] | %16
[M:3/4] [C,G,][C,G,] [C,G,][C,G,] [C,G,][C,G,] | [C,C]2 [E,C][K:treble] [F,CF]2 [F,CF] | %18
 [G,CE][G,CE] [G,CE] [G,B,F]2 [G,F] |[M:5/8][K:bass] [C,G,]-[C,G,]- [C,G,]3 |] %20

